public/images/landing_secure.svg

<svg width="22" height="25" viewBox="0 0 22 25" fill="none" xmlns="http://www.w3.org/2000/svg">
<path d="M4.8 9.85V6.25C4.8 4.6587 5.43214 3.13258 6.55736 2.00736C7.68258 0.882141 9.2087 0.25 10.8 0.25C12.3913 0.25 13.9174 0.882141 15.0426 2.00736C16.1679 3.13258 16.8 4.6587 16.8 6.25V9.85H19.2C19.8365 9.85 20.447 10.1029 20.8971 10.5529C21.3471 11.003 21.6 11.6135 21.6 12.25V21.85C21.6 22.4865 21.3471 23.097 20.8971 23.5471C20.447 23.9971 19.8365 24.25 19.2 24.25H2.4C1.76348 24.25 1.15303 23.9971 0.702944 23.5471C0.252856 23.097 0 22.4865 0 21.85V12.25C0 10.93 1.08 9.85 2.4 9.85H4.8ZM7.2 9.85H14.4V6.25C14.4 5.29522 14.0207 4.37955 13.3456 3.70442C12.6705 3.02928 11.7548 2.65 10.8 2.65C9.84522 2.65 8.92955 3.02928 8.25441 3.70442C7.57928 4.37955 7.2 5.29522 7.2 6.25V9.85ZM2.4 12.25V21.85H19.2V12.25H2.4ZM10.8 14.65C11.1183 14.65 11.4235 14.7764 11.6485 15.0015C11.8736 15.2265 12 15.5317 12 15.85V18.25C12 18.5683 11.8736 18.8735 11.6485 19.0985C11.4235 19.3236 11.1183 19.45 10.8 19.45C10.4817 19.45 10.1765 19.3236 9.95147 19.0985C9.72643 18.8735 9.6 18.5683 9.6 18.25V15.85C9.6 15.5317 9.72643 15.2265 9.95147 15.0015C10.1765 14.7764 10.4817 14.65 10.8 14.65Z" fill="white"/>
</svg>

<svg xmlns="http://www.w3.org/2000/svg" width="22" height="25" fill="none"  xmlns:v="https://vecta.io/nano"><path d="M4.8 9.85v-3.6a6 6 0 0 1 6-6 6 6 0 0 1 6 6v3.6h2.4a2.4 2.4 0 0 1 2.4 2.4v9.6a2.4 2.4 0 0 1-2.4 2.4H2.4a2.4 2.4 0 0 1-2.4-2.4v-9.6a2.41 2.41 0 0 1 2.4-2.4h2.4zm2.4 0h7.2v-3.6a3.6 3.6 0 0 0-3.6-3.6 3.6 3.6 0 0 0-3.6 3.6v3.6zm-4.8 2.4v9.6h16.8v-9.6H2.4zm8.4 2.4a1.2 1.2 0 0 1 1.2 1.2v2.4a1.2 1.2 0 0 1-1.2 1.2 1.2 1.2 0 0 1-1.2-1.2v-2.4a1.2 1.2 0 0 1 1.2-1.2z" fill="#fff"/></svg>
